X: 34
T:Shetland Fiddler
R:reel
Z:Added by Alf Warnock
M:4/4
L:1/8
Q:1/4=97
K:D
|d2fd Adfe|defg afdf|e2ge (3Bcd ed|cdef gece|
d2fd Adfe|defg afdf|(3fga fd (3fga fd|[1 Bgec d3A:|[2 Bgec d2cd||
eAfA gAaA|faaf gfed|AeBe cede|efed cABc|
dAeA fAgA|faaf gfed|(3fga fd (3fga fd|[1 Bgec d2cd:|[2 Bgec d2z|

